assets/ionicons/svg/business-outline.svg

<svg xmlns="http://www.w3.org/2000/svg" class="ionicon" viewBox="0 0 512 512"><title>Business</title><path fill="none" stroke="currentColor" stroke-linecap="round" stroke-linejoin="round" stroke-width="32" d="M176 416v64M80 32h192a32 32 0 0132 32v412a4 4 0 01-4 4H48h0V64a32 32 0 0132-32zM320 192h112a32 32 0 0132 32v256h0-160 0V208a16 16 0 0116-16z"/><path d="M98.08 431.87a16 16 0 1113.79-13.79 16 16 0 01-13.79 13.79zM98.08 351.87a16 16 0 1113.79-13.79 16 16 0 01-13.79 13.79zM98.08 271.87a16 16 0 1113.79-13.79 16 16 0 01-13.79 13.79zM98.08 191.87a16 16 0 1113.79-13.79 16 16 0 01-13.79 13.79zM98.08 111.87a16 16 0 1113.79-13.79 16 16 0 01-13.79 13.79zM178.08 351.87a16 16 0 1113.79-13.79 16 16 0 01-13.79 13.79zM178.08 271.87a16 16 0 1113.79-13.79 16 16 0 01-13.79 13.79zM178.08 191.87a16 16 0 1113.79-13.79 16 16 0 01-13.79 13.79zM178.08 111.87a16 16 0 1113.79-13.79 16 16 0 01-13.79 13.79zM258.08 431.87a16 16 0 1113.79-13.79 16 16 0 01-13.79 13.79zM258.08 351.87a16 16 0 1113.79-13.79 16 16 0 01-13.79 13.79zM258.08 271.87a16 16 0 1113.79-13.79 16 16 0 01-13.79 13.79z"/><ellipse cx="256" cy="176" rx="15.95" ry="16.03" transform="rotate(-45 255.99 175.996)"/><path d="M258.08 111.87a16 16 0 1113.79-13.79 16 16 0 01-13.79 13.79zM400 400a16 16 0 1016 16 16 16 0 00-16-16zM400 320a16 16 0 1016 16 16 16 0 00-16-16zM400 240a16 16 0 1016 16 16 16 0 00-16-16zM336 400a16 16 0 1016 16 16 16 0 00-16-16zM336 320a16 16 0 1016 16 16 16 0 00-16-16zM336 240a16 16 0 1016 16 16 16 0 00-16-16z"/></svg>

<svg xmlns="http://www.w3.org/2000/svg" width="512" height="512" viewBox="0 0 512 512"><title>ionicons-v5-h</title><line x1="176" y1="416" x2="176" y2="480" style="fill:none;stroke:#000;stroke-linecap:round;stroke-linejoin:round;stroke-width:32px"/><path d="M80,32H272a32,32,0,0,1,32,32V476a4,4,0,0,1-4,4H48a0,0,0,0,1,0,0V64A32,32,0,0,1,80,32Z" style="fill:none;stroke:#000;stroke-linecap:round;stroke-linejoin:round;stroke-width:32px"/><path d="M320,192H432a32,32,0,0,1,32,32V480a0,0,0,0,1,0,0H304a0,0,0,0,1,0,0V208A16,16,0,0,1,320,192Z" style="fill:none;stroke:#000;stroke-linecap:round;stroke-linejoin:round;stroke-width:32px"/><path d="M98.08,431.87a16,16,0,1,1,13.79-13.79A16,16,0,0,1,98.08,431.87Z"/><path d="M98.08,351.87a16,16,0,1,1,13.79-13.79A16,16,0,0,1,98.08,351.87Z"/><path d="M98.08,271.87a16,16,0,1,1,13.79-13.79A16,16,0,0,1,98.08,271.87Z"/><path d="M98.08,191.87a16,16,0,1,1,13.79-13.79A16,16,0,0,1,98.08,191.87Z"/><path d="M98.08,111.87a16,16,0,1,1,13.79-13.79A16,16,0,0,1,98.08,111.87Z"/><path d="M178.08,351.87a16,16,0,1,1,13.79-13.79A16,16,0,0,1,178.08,351.87Z"/><path d="M178.08,271.87a16,16,0,1,1,13.79-13.79A16,16,0,0,1,178.08,271.87Z"/><path d="M178.08,191.87a16,16,0,1,1,13.79-13.79A16,16,0,0,1,178.08,191.87Z"/><path d="M178.08,111.87a16,16,0,1,1,13.79-13.79A16,16,0,0,1,178.08,111.87Z"/><path d="M258.08,431.87a16,16,0,1,1,13.79-13.79A16,16,0,0,1,258.08,431.87Z"/><path d="M258.08,351.87a16,16,0,1,1,13.79-13.79A16,16,0,0,1,258.08,351.87Z"/><path d="M258.08,271.87a16,16,0,1,1,13.79-13.79A16,16,0,0,1,258.08,271.87Z"/><ellipse cx="256" cy="176" rx="15.95" ry="16.03" transform="translate(-49.47 232.56) rotate(-45)"/><path d="M258.08,111.87a16,16,0,1,1,13.79-13.79A16,16,0,0,1,258.08,111.87Z"/><path d="M400,400a16,16,0,1,0,16,16,16,16,0,0,0-16-16Z"/><path d="M400,320a16,16,0,1,0,16,16,16,16,0,0,0-16-16Z"/><path d="M400,240a16,16,0,1,0,16,16,16,16,0,0,0-16-16Z"/><path d="M336,400a16,16,0,1,0,16,16,16,16,0,0,0-16-16Z"/><path d="M336,320a16,16,0,1,0,16,16,16,16,0,0,0-16-16Z"/><path d="M336,240a16,16,0,1,0,16,16,16,16,0,0,0-16-16Z"/></svg>
